img/logo/logo.svg

<svg width="40" height="40" viewBox="0 0 40 40" fill="none" xmlns="http://www.w3.org/2000/svg">
<path d="M20 40C31.0457 40 40 31.0457 40 20C40 8.9543 31.0457 0 20 0C8.9543 0 0 8.9543 0 20C0 31.0457 8.9543 40 20 40Z" fill="#162F71"/>
<path d="M20 36.25C28.9746 36.25 36.25 28.9746 36.25 20C36.25 11.0254 28.9746 3.75 20 3.75C11.0254 3.75 3.75 11.0254 3.75 20C3.75 28.9746 11.0254 36.25 20 36.25Z" stroke="white" stroke-width="1.5"/>
<path d="M5 18H2V21H5V18Z" fill="white"/>
<path d="M38 18H35V21H38V18Z" fill="white"/>
<path d="M14.415 24.8669C17.2301 24.8669 18.9759 23.0371 18.9759 19.9952C18.9759 16.9582 17.2301 15.1331 14.4105 15.1331H11V24.8669H14.415ZM13.2331 22.8612V17.1388H14.2977C15.8857 17.1388 16.7383 17.8992 16.7383 19.9952C16.7383 22.1008 15.8857 22.8612 14.3293 22.8612H13.2331Z" fill="white"/>
<path d="M29 20C29 16.7823 27.0692 15 24.588 15C22.0977 15 20.1805 16.7823 20.1805 20C20.1805 23.2034 22.0977 25 24.588 25C27.0692 25 29 23.2177 29 20ZM26.7173 20C26.7173 21.9059 25.9233 22.9373 24.588 22.9373C23.2571 22.9373 22.4586 21.9059 22.4586 20C22.4586 18.0941 23.2571 17.0627 24.588 17.0627C25.9233 17.0627 26.7173 18.0941 26.7173 20Z" fill="white"/>
</svg>

<svg width="40" height="40" fill="none" xmlns="http://www.w3.org/2000/svg"><path d="M20 40c11.046 0 20-8.954 20-20S31.046 0 20 0 0 8.954 0 20s8.954 20 20 20z" fill="#162F71"/><path d="M20 36.25c8.975 0 16.25-7.275 16.25-16.25S28.975 3.75 20 3.75 3.75 11.025 3.75 20 11.025 36.25 20 36.25z" stroke="#fff" stroke-width="1.5"/><path d="M5 18H2v3h3v-3zm33 0h-3v3h3v-3zm-23.585 6.867c2.815 0 4.56-1.83 4.56-4.872 0-3.037-1.745-4.862-4.565-4.862H11v9.734h3.415zm-1.182-2.006V17.14h1.065c1.588 0 2.44.76 2.44 2.856 0 2.106-.852 2.866-2.409 2.866h-1.096zM29 20c0-3.218-1.93-5-4.412-5-2.49 0-4.408 1.782-4.408 5 0 3.203 1.918 5 4.408 5C27.069 25 29 23.218 29 20zm-2.283 0c0 1.906-.794 2.937-2.129 2.937-1.33 0-2.13-1.031-2.13-2.937s.8-2.937 2.13-2.937c1.335 0 2.13 1.031 2.13 2.937z" fill="#fff"/></svg>
